svg/outlined/MessageOutlinedIcon.svg

<svg width="24" height="24" viewBox="0 0 24 24" xmlns="http://www.w3.org/2000/svg" fill="#cacaca"><path d="M8.625 15.9414C9.09375 15.9648 9.49219 16.1289 9.82031 16.4336C10.125 16.7617 10.2891 17.1602 10.3125 17.6289V18.1914L12.8789 16.293C13.1602 16.0586 13.4883 15.9414 13.8633 15.9414H18.75C19.1016 15.918 19.2891 15.7305 19.3125 15.3789V5.25391C19.2891 4.90234 19.1016 4.71484 18.75 4.69141H5.25C4.89844 4.71484 4.71094 4.90234 4.6875 5.25391V15.3789C4.71094 15.7305 4.89844 15.918 5.25 15.9414H8.625ZM10.3125 20.3008L10.1367 20.4414L9.53906 20.8984C9.35156 21.0156 9.15234 21.0273 8.94141 20.9336C8.73047 20.8398 8.625 20.6758 8.625 20.4414V17.6289H5.25C4.61719 17.6055 4.08984 17.3828 3.66797 16.9609C3.24609 16.5391 3.02344 16.0117 3 15.3789V5.25391C3.02344 4.62109 3.24609 4.09375 3.66797 3.67188C4.08984 3.25 4.61719 3.02734 5.25 3.00391H18.75C19.3828 3.02734 19.9102 3.25 20.332 3.67188C20.7539 4.09375 20.9766 4.62109 21 5.25391V15.3789C20.9766 16.0117 20.7539 16.5391 20.332 16.9609C19.9102 17.3828 19.3828 17.6055 18.75 17.6289H13.8633L10.3125 20.3008Z"/></svg>

<svg width="24" height="24" fill="#cacaca" xmlns="http://www.w3.org/2000/svg"><path d="M8.625 16.061c.469.024.867.188 1.195.493.305.328.47.726.492 1.195v.562l2.567-1.898c.281-.234.61-.352.984-.352h4.887c.352-.023.54-.21.563-.562V5.374c-.024-.352-.211-.54-.563-.563H5.25c-.352.024-.54.211-.563.563v10.125c.024.351.211.539.563.562h3.375zm1.688 4.36l-.176.14-.598.457a.603.603 0 01-.598.036.498.498 0 01-.316-.493V17.75H5.25c-.633-.023-1.16-.246-1.582-.668-.422-.422-.645-.95-.668-1.582V5.374c.023-.633.246-1.16.668-1.582.422-.422.95-.645 1.582-.668h13.5c.633.023 1.16.246 1.582.668.422.422.645.95.668 1.582v10.125c-.023.633-.246 1.16-.668 1.582-.422.422-.95.645-1.582.668h-4.887l-3.55 2.672z"/></svg>
